X:1
T:Title
%%score ( 1 2 ) { 3 | 4 }
L:1/8
Q:1/4=108
M:4/4
K:F
V:1 treble nm="Grand Piano, Soprano"
V:2 treble 
V:3 bass nm="Choir Pad, Tambora, CMD"
V:4 bass 
V:1
 FG [FA]2 [FA]2 [Fc]2 | [Fc]2 [FA]2 [EG]2 F2 | [CF]2 [CE]2 [EG]2 F2 | [EG]2 [FA]6 | %4
w: By~B.~R.~Mann,~1921 * * * *||||
 FG [FA]2 [FA]2 [Fc]2 | [Fc]2 [FA]2 [EG]2 [DF]2 | [DF]2 [EG]2 [EG]2 [FA]2 | [EG]2 F6 | %8
w: ||||
 A2 c2- [Fc-]2 [Fc]2 | [CF]2 A2- [FA-]2 [FA]2 | [CF]2 [EG]2 [EG]2 F2 | [EG]2 [FA]6 | %12
w: ||||
 A2 c2- [Fc-]2 [Fc]2 | [CF]2 A2- [FA-]2 [FA]2 | F2 [EG]2 [EG]2 [FA]2 | [EG]2 F6- | F2 z2 z4 |] %17
w: |||||
V:2
 C2 z2 z4 | x8 | x8 | x8 | C2 z2 z4 | x8 | x8 | x8 | z2 F2 z4 | z2 F2 z4 | x8 | x8 | z2 F2 z4 | %13
 z2 F2 z4 | x8 | x8 | x8 |] %17
V:3
 A,B, C2 C2 A,2 | A,2 C2 B,2 A,2 | A,2 G,2[K:treble] C2 C2 | C2 C6 | A,B, C2 C2[K:bass] A,2 | %5
 A,2 C2 B,2 A,2 | A,2 B,2 B,2 C2 | B,2 A,6 | z2 A,2 A,2 A,2 | A,2 C2[K:treble] C2 C2 | %10
 A,2 C2 C2 C2 | C2 C6 | z2[K:bass] A,2 A,2 A,2 | A,2 C2 C2 C2 | A,2 B,2 B,2 C2 | B,2 A,6- | %16
 A,2 z2 z4 |] %17
V:4
 F,2 F,2 F,2 F,2 | F,2 F,2 C,2 F,2 | F,2 C,2 C,2 A,,2 | C,2 F,6 | F,2 F,2 F,2 F,2 | %5
 F,2 F,2 C,2 D,2 | D,2 C,2 C,2 C,2 | C,2 F,6 | z2 F,2 F,2 F,2 | F,2 F,2 F,2 F,2 | %10
 F,2 C,2 C,2 A,,2 | C,2 F,6 | z2 F,2 F,2 F,2 | F,2 F,2 F,2 F,2 | F,2 C,2 C,2 C,2 | C,2 F,6- | %16
 F,2 z2 z4 |] %17

